;START_OF_HEADER
;HEADER_VERSION:0.1
;FLAVOR:Griffin
;GENERATOR.NAME:Cura_SteamEngine
;GENERATOR.VERSION:5.2.1
;GENERATOR.BUILD_DATE:2022-10-19
;TARGET_MACHINE.NAME:Ultimaker 3 Extended
;EXTRUDER_TRAIN.0.INITIAL_TEMPERATURE:205
;EXTRUDER_TRAIN.0.MATERIAL.VOLUME_USED:646
;EXTRUDER_TRAIN.0.MATERIAL.GUID:506c9f0d-e3aa-4bd4-b2d2-23e2425b1aa9
;EXTRUDER_TRAIN.0.NOZZLE.DIAMETER:0.4
;EXTRUDER_TRAIN.0.NOZZLE.NAME:AA 0.4
;BUILD_PLATE.INITIAL_TEMPERATURE:60
;PRINT.TIME:619
;PRINT.GROUPS:1
;PRINT.SIZE.MIN.X:9
;PRINT.SIZE.MIN.Y:6
;PRINT.SIZE.MIN.Z:0.27
;PRINT.SIZE.MAX.X:128.649
;PRINT.SIZE.MAX.Y:119.576
;PRINT.SIZE.MAX.Z:7.07
;SLICE_UUID:a75ca217-dea6-49b3-848b-5509303ef794
;END_OF_HEADER
;Generated with Cura_SteamEngine 5.2.1
T0
M82 ;absolute extrusion mode

G92 E0
M109 S205
G0 F15000 X9 Y6 Z2
G280
G1 F1500 E-6.5
;LAYER_COUNT:49
;LAYER:0
M107
M204 S1000
M205 X20 Y20
G1 F600 Z2.27
G0 F4285.7 X107.795 Y99.183 Z2.27
;TYPE:SKIRT
G1 F600 Z0.27
G1 F1500 E0
G1 F1200 X108.661 Y98.359 E0.02428
G1 X109.449 Y97.736 E0.04469
G1 X109.906 Y97.426 E0.05591
G1 X110.496 Y97.053 E0.07009
G1 X111.044 Y96.76 E0.08272
G1 X111.66 Y96.458 E0.09665
G1 X112.197 Y96.242 E0.10841
G1 X113.072 Y95.931 E0.12728
G1 X114.047 Y95.684 E0.14771
G1 X114.6 Y95.585 E0.15912
G1 X115.294 Y95.485 E0.17337
G1 X115.826 Y95.447 E0.1842
G1 X116.562 Y95.418 E0.19917
G1 X117.149 Y95.439 E0.2111
G1 X118.1 Y95.512 E0.23048
G1 X119.236 Y95.707 E0.25389
G1 X120.26 Y95.996 E0.27551
G1 X120.814 Y96.194 E0.28746
G1 X121.469 Y96.456 E0.30179
G1 X121.992 Y96.71 E0.3136
G1 X122.601 Y97.03 E0.32758
G1 X123.069 Y97.323 E0.3388
G1 X123.714 Y97.762 E0.35465
G1 X124.112 Y98.069 E0.36486
G1 X124.789 Y98.634 E0.38277
G1 X125.527 Y99.392 E0.40426
G1 X125.897 Y99.832 E0.41594
G1 X126.44 Y100.522 E0.43378
G1 X127.024 Y101.448 E0.45602
G1 X127.288 Y101.94 E0.46737
G1 X127.619 Y102.611 E0.48257
G1 X128.079 Y103.809 E0.50864
G1 X128.407 Y105.066 E0.53503
G1 X128.557 Y106.04 E0.55505
G1 X128.618 Y106.702 E0.56855
G1 X128.649 Y107.479 E0.58435
G1 X128.631 Y108.049 E0.59594
G1 X128.586 Y108.746 E0.61013
G1 X128.504 Y109.338 E0.62227
G1 X128.324 Y110.31 E0.64235
G1 X127.981 Y111.474 E0.667
G1 X127.611 Y112.404 E0.68734
G1 X127.327 Y112.982 E0.70042
G1 X126.888 Y113.792 E0.71914
G1 X126.209 Y114.789 E0.74364
G1 X125.447 Y115.705 E0.76785
G1 X124.68 Y116.456 E0.78965
G1 X124.229 Y116.835 E0.80162
G1 X123.55 Y117.369 E0.81917
G1 X122.625 Y117.955 E0.84142
G1 X122.12 Y118.226 E0.85306
G1 X121.467 Y118.546 E0.86783
G1 X120.923 Y118.764 E0.87974
G1 X120.034 Y119.079 E0.8989
G1 X118.819 Y119.374 E0.9243
G1 X117.85 Y119.514 E0.94419
G1 X117.281 Y119.555 E0.95578
G1 X116.736 Y119.576 E0.96686
G1 X115.999 Y119.562 E0.98183
G1 X115.142 Y119.506 E0.99928
G1 X113.877 Y119.288 E1.02536
G1 X112.592 Y118.915 E1.05254
G1 X111.666 Y118.545 E1.0728
G1 X111.169 Y118.303 E1.08403
G1 X110.322 Y117.848 E1.10356
G1 X109.506 Y117.305 E1.12348
G1 X109.011 Y116.921 E1.1362
G1 X108.479 Y116.476 E1.15029
G1 X108.087 Y116.1 E1.16133
G1 X107.604 Y115.604 E1.17539
G1 X107.23 Y115.159 E1.1872
G1 X106.799 Y114.61 E1.20138
G1 X106.493 Y114.16 E1.21244
G1 X106.118 Y113.567 E1.22669
G1 X105.845 Y113.059 E1.23841
G1 X105.47 Y112.297 E1.25566
G1 X105.096 Y111.294 E1.27741
G1 X104.918 Y110.684 E1.29032
G1 X104.686 Y109.725 E1.31036
G1 X104.525 Y108.509 E1.33528
G1 X104.486 Y107.516 E1.35547
G1 X104.503 Y106.956 E1.36685
G1 X104.553 Y106.227 E1.3817
G1 X104.634 Y105.642 E1.39369
G1 X104.806 Y104.706 E1.41303
G1 X105.159 Y103.506 E1.43844
G1 X105.525 Y102.596 E1.45836
G1 X105.776 Y102.077 E1.47008
G1 X106.168 Y101.332 E1.48718
G1 X106.791 Y100.4 E1.50995
G1 X107.13 Y99.964 E1.52117
G1 X107.795 Y99.183 E1.54201
G0 F4285.7 X108.139 Y99.518
G1 F1200 X108.97 Y98.726 E1.56533
G1 X109.729 Y98.126 E1.58499
G1 X110.162 Y97.831 E1.59563
G1 X110.723 Y97.476 E1.60912
G1 X111.255 Y97.191 E1.62138
G1 X111.845 Y96.902 E1.63473
G1 X112.362 Y96.693 E1.64606
G1 X113.211 Y96.39 E1.66437
G1 X114.134 Y96.157 E1.68371
G1 X114.668 Y96.06 E1.69474
G1 X115.329 Y95.965 E1.7083
G1 X115.845 Y95.926 E1.71881
G1 X116.407 Y95.904 E1.73024
G1 X117.116 Y95.918 E1.74465
G1 X118.043 Y95.989 E1.76353
G1 X119.128 Y96.176 E1.7859
G1 X120.117 Y96.455 E1.80678
G1 X120.635 Y96.64 E1.81795
G1 X121.277 Y96.897 E1.832
G1 X121.768 Y97.135 E1.84309
G1 X122.368 Y97.451 E1.85686
G1 X122.802 Y97.722 E1.86726
G1 X123.584 Y98.253 E1.88646
G1 X124.462 Y98.987 E1.90971
G1 X125.171 Y99.715 E1.93035
G1 X125.52 Y100.129 E1.94135
G1 X126.047 Y100.799 E1.95867
G1 X126.601 Y101.677 E1.97976
G1 X126.858 Y102.152 E1.99073
G1 X127.097 Y102.636 E2.0017
G1 X127.333 Y103.188 E2.0139
G1 X127.669 Y104.115 E2.03393
G1 X127.94 Y105.181 E2.05627
G1 X128.082 Y106.109 E2.07534
G1 X128.139 Y106.736 E2.08813
G1 X128.168 Y107.484 E2.10334
G1 X128.152 Y108.017 E2.11417
G1 X128.109 Y108.68 E2.12767
G1 X127.989 Y109.566 E2.14584
G1 X127.789 Y110.425 E2.16375
G1 X127.528 Y111.313 E2.18256
G1 X127.232 Y112.058 E2.19884
G1 X126.976 Y112.614 E2.21128
G1 X126.529 Y113.465 E2.23081
G1 X125.83 Y114.494 E2.25608
G1 X125.094 Y115.379 E2.27946
G1 X124.467 Y115.992 E2.29728
G1 X123.932 Y116.458 E2.31169
G1 X123.269 Y116.979 E2.32882
G1 X122.392 Y117.534 E2.3499
G1 X121.909 Y117.795 E2.36106
G1 X121.277 Y118.105 E2.37536
G1 X120.758 Y118.313 E2.38672
G1 X119.901 Y118.618 E2.4052
G1 X118.737 Y118.901 E2.42953
G1 X117.791 Y119.038 E2.44895
G1 X117.263 Y119.075 E2.4597
G1 X116.718 Y119.096 E2.47078
G1 X116.031 Y119.083 E2.48474
G1 X115.199 Y119.029 E2.50168
G1 X113.987 Y118.82 E2.52667
G1 X112.758 Y118.464 E2.55266
G1 X111.861 Y118.105 E2.57229
G1 X111.392 Y117.878 E2.58287
G1 X110.58 Y117.442 E2.6016
G1 X109.776 Y116.908 E2.62121
G1 X109.319 Y116.553 E2.63296
G1 X108.796 Y116.116 E2.64681
G1 X108.431 Y115.765 E2.6571
G1 X108.066 Y115.39 E2.66773
G1 X107.719 Y114.998 E2.67836
G1 X107.18 Y114.319 E2.69597
G1 X106.899 Y113.903 E2.70617
G1 X106.457 Y113.204 E2.72297
G1 X105.912 Y112.109 E2.74782
G1 X105.551 Y111.138 E2.76887
G1 X105.383 Y110.567 E2.78096
G1 X105.159 Y109.644 E2.80026
G1 X105.003 Y108.471 E2.8243
G1 X104.966 Y107.525 E2.84353
G1 X104.982 Y106.988 E2.85444
G1 X105.03 Y106.277 E2.86892
G1 X105.107 Y105.724 E2.88026
G1 X105.272 Y104.829 E2.89875
G1 X105.523 Y103.947 E2.91738
G1 X105.717 Y103.407 E2.92904
G1 X105.967 Y102.783 E2.94269
G1 X106.201 Y102.3 E2.9536
G1 X106.581 Y101.578 E2.97017
G1 X107.177 Y100.687 E2.99195
G1 X107.498 Y100.272 E3.00261
G1 X108.139 Y99.518 E3.02271
G0 F4285.7 X108.658 Y99.687
G1 F1200 X109.295 Y99.079 E3.0406
G1 X110.219 Y98.361 E3.06438
G1 X111.225 Y97.738 E3.08841
G1 X112.293 Y97.226 E3.11248
G1 X113.373 Y96.842 E3.13576
G1 X114.506 Y96.566 E3.15945
G1 X115.619 Y96.416 E3.18227
G1 X116.425 Y96.384 E3.19865
G1 X116.931 Y96.389 E3.20893
G1 X117.966 Y96.463 E3.23002
G1 X119.032 Y96.646 E3.25199
G1 X120.23 Y96.993 E3.27733
G1 X121.312 Y97.437 E3.30109
G1 X122.282 Y97.948 E3.32336
G1 X123.297 Y98.639 E3.3483
G1 X124.138 Y99.341 E3.37056
G1 X124.723 Y99.942 E3.3876
G1 X125.143 Y100.426 E3.40062
G1 X125.661 Y101.084 E3.41763
G1 X126.311 Y102.129 E3.44263
G1 X126.735 Y102.988 E3.46209
G1 X126.932 Y103.482 E3.4729
G1 X127.213 Y104.266 E3.48982
G1 X127.472 Y105.289 E3.51125
G1 X127.607 Y106.178 E3.52952
G1 X127.668 Y106.912 E3.54448
G1 X127.689 Y107.738 E3.56127
G1 X127.631 Y108.632 E3.57947
G1 X127.519 Y109.464 E3.59653
G1 X127.365 Y110.151 E3.61083
G1 X127.156 Y110.897 E3.62657
G1 X126.977 Y111.4 E3.63741
G1 X126.786 Y111.88 E3.64791
G1 X126.544 Y112.405 E3.65965
G1 X126.081 Y113.27 E3.67958
G1 X125.45 Y114.2 E3.70242
G1 X124.741 Y115.052 E3.72493
G1 X124.131 Y115.649 E3.74227
G1 X123.753 Y115.984 E3.75254
G1 X122.982 Y116.594 E3.77251
G1 X121.928 Y117.251 E3.79774
G1 X121.202 Y117.607 E3.81417
G1 X120.726 Y117.811 E3.82469
G1 X119.782 Y118.152 E3.84508
G1 X118.644 Y118.429 E3.86887
G1 X117.748 Y118.559 E3.88726
G1 X117.244 Y118.595 E3.89753
G1 X116.44 Y118.626 E3.91388
G1 X115.26 Y118.552 E3.93789
G1 X114.108 Y118.354 E3.96164
G1 X113.024 Y118.048 E3.98452
G1 X112.178 Y117.715 E4.00299
G1 X111.615 Y117.453 E4.01561
G1 X110.835 Y117.036 E4.03358
G1 X110.17 Y116.593 E4.04981
G1 X109.758 Y116.29 E4.0602
G1 X109.212 Y115.838 E4.0746
G1 X108.775 Y115.431 E4.08673
G1 X108.41 Y115.056 E4.09736
G1 X107.985 Y114.566 E4.11054
G1 X107.463 Y113.901 E4.12772
G1 X106.818 Y112.862 E4.15256
G1 X106.349 Y111.909 E4.17414
G1 X106.009 Y110.997 E4.19391
G1 X105.849 Y110.45 E4.20549
G1 X105.632 Y109.559 E4.22412
G1 X105.48 Y108.425 E4.24736
G1 X105.444 Y107.25 E4.27124
G1 X105.535 Y106.051 E4.29567
G1 X105.737 Y104.951 E4.31839
G1 X106.023 Y103.946 E4.33962
G1 X106.403 Y102.983 E4.36065
G1 X106.626 Y102.523 E4.37104
G1 X106.992 Y101.826 E4.38703
G1 X107.637 Y100.862 E4.4106
G1 X108.3 Y100.061 E4.43172
G1 X108.658 Y99.687 E4.44224
G0 F4285.7 X108.818 Y100.2
G1 F1200 X109.356 Y99.678 E4.45747
G1 X109.77 Y99.318 E4.46861
G1 X110.474 Y98.77 E4.48674
G1 X111.348 Y98.217 E4.50775
G1 X112.444 Y97.684 E4.53251
G1 X113.379 Y97.343 E4.55272
G1 X114.238 Y97.121 E4.57075
G1 X114.806 Y97.01 E4.58251
G1 X115.656 Y96.894 E4.59993
G1 X116.444 Y96.863 E4.61596
G1 X117.051 Y96.875 E4.62829
G1 X117.904 Y96.939 E4.64567
G1 X118.925 Y97.115 E4.66671
G1 X120.068 Y97.445 E4.69088
G1 X121.1 Y97.868 E4.71354
G1 X122.025 Y98.355 E4.73478
G1 X122.995 Y99.012 E4.75858
G1 X123.818 Y99.699 E4.78036
G1 X124.61 Y100.525 E4.80361
G1 X125.267 Y101.359 E4.82518
G1 X125.89 Y102.36 E4.84913
G1 X126.236 Y103.061 E4.86501
G1 X126.443 Y103.548 E4.87576
G1 X126.748 Y104.389 E4.89393
G1 X127.002 Y105.392 E4.91495
G1 X127.132 Y106.247 E4.93252
G1 X127.188 Y106.929 E4.94642
G1 X127.21 Y107.743 E4.96297
G1 X127.127 Y108.856 E4.98564
G1 X126.932 Y109.932 E5.00786
G1 X126.659 Y110.892 E5.02813
G1 X126.34 Y111.703 E5.04584
G1 X126.111 Y112.197 E5.0569
G1 X125.671 Y113.02 E5.07586
G1 X125.07 Y113.906 E5.09761
G1 X124.389 Y114.724 E5.11923
G1 X123.595 Y115.502 E5.14181
G1 X122.712 Y116.196 E5.16463
G1 X121.998 Y116.648 E5.1818
G1 X121.486 Y116.933 E5.1937
G1 X120.99 Y117.176 E5.20492
G1 X120.428 Y117.412 E5.21731
G1 X119.643 Y117.692 E5.23424
G1 X118.544 Y117.961 E5.25722
G1 X117.466 Y118.107 E5.27932
G1 X116.452 Y118.146 E5.29994
G1 X115.315 Y118.075 E5.32308
G1 X114.205 Y117.883 E5.34597
G1 X113.079 Y117.559 E5.36977
G1 X112.143 Y117.185 E5.39025
G1 X111.362 Y116.778 E5.40814
G1 X110.898 Y116.502 E5.41911
G1 X110.342 Y116.132 E5.43267
G1 X109.934 Y115.816 E5.44316
G1 X109.259 Y115.243 E5.46115
G1 X108.519 Y114.468 E5.48291
G1 X108.027 Y113.843 E5.49907
G1 X107.71 Y113.39 E5.51031
G1 X107.242 Y112.636 E5.52833
G1 X106.784 Y111.705 E5.54941
G1 X106.374 Y110.578 E5.57378
G1 X106.109 Y109.492 E5.59649
G1 X105.969 Y108.505 E5.61674
G1 X105.931 Y107.621 E5.63471
G1 X105.939 Y107.053 E5.64625
G1 X106.01 Y106.121 E5.66524
G1 X106.205 Y105.055 E5.68726
G1 X106.516 Y103.991 E5.70978
G1 X106.89 Y103.06 E5.73016
G1 X107.409 Y102.065 E5.75296
G1 X108.096 Y101.051 E5.77784
G1 X108.818 Y100.2 E5.80051
G1 F1500 E-0.69949
;MESH:BR-0000X-AC-Brake Pedal Arm Spacer-Drill Correction.STL
G0 F4285.7 X110.516 Y104.001
G0 X110.021 Y107.501
G1 F1500 E5.80051
G0 F4285.7 X109.399 Y107.502
;TYPE:WALL-OUTER
G1 F1200 X109.439 Y108.253 E5.81579
G1 X109.556 Y108.987 E5.83089
G1 X109.75 Y109.715 E5.8462
G1 X110.017 Y110.414 E5.8614
G1 X110.358 Y111.083 E5.87665
G1 X110.767 Y111.711 E5.89188
G1 X111.234 Y112.291 E5.90701
G1 X111.775 Y112.835 E5.92259
G1 X112.356 Y113.301 E5.93772
G1 X112.981 Y113.707 E5.95287
G1 X113.649 Y114.048 E5.9681
G1 X114.353 Y114.317 E5.98341
G1 X115.08 Y114.511 E5.9987
G1 X115.815 Y114.628 E6.01382
G1 X116.567 Y114.668 E6.02912
G1 X117.32 Y114.628 E6.04444
G1 X118.055 Y114.512 E6.05955
G1 X118.782 Y114.317 E6.07484
G1 X119.485 Y114.048 E6.09014
G1 X120.152 Y113.707 E6.10535
G1 X120.778 Y113.301 E6.12051
G1 X121.358 Y112.834 E6.13564
G1 X121.902 Y112.293 E6.15123
G1 X122.368 Y111.712 E6.16636
G1 X122.776 Y111.083 E6.18159
G1 X123.118 Y110.414 E6.19685
G1 X123.384 Y109.715 E6.21205
G1 X123.579 Y108.987 E6.22736
G1 X123.696 Y108.253 E6.24246
G1 X123.731 Y107.566 E6.25643
G1 X123.735 Y107.498 E6.25782
G1 X123.696 Y106.738 E6.27328
G1 X123.58 Y106.013 E6.28819
G1 X123.384 Y105.285 E6.30351
G1 X123.116 Y104.582 E6.31879
G1 X122.774 Y103.915 E6.33402
G1 X122.368 Y103.289 E6.34918
G1 X121.901 Y102.709 E6.36431
G1 X121.36 Y102.165 E6.37989
G1 X120.779 Y101.699 E6.39502
G1 X120.152 Y101.293 E6.4102
G1 X119.485 Y100.952 E6.42542
G1 X118.782 Y100.683 E6.44071
G1 X118.055 Y100.489 E6.45599
G1 X117.32 Y100.372 E6.47111
G1 X116.567 Y100.332 E6.48643
G1 X115.815 Y100.371 E6.50173
G1 X115.08 Y100.488 E6.51685
G1 X114.353 Y100.683 E6.53214
G1 X113.649 Y100.952 E6.54745
G1 X112.981 Y101.293 E6.56269
G1 X112.356 Y101.699 E6.57783
G1 X111.777 Y102.166 E6.59294
G1 X111.233 Y102.707 E6.60853
G1 X110.767 Y103.289 E6.62367
G1 X110.358 Y103.917 E6.6389
G1 X110.017 Y104.586 E6.65415
G1 X109.75 Y105.285 E6.66936
G1 X109.555 Y106.013 E6.68467
G1 X109.439 Y106.742 E6.69966
G1 X109.399 Y107.502 E6.71512
G0 F4285.7 X109.409 Y107.701
G0 X109.879 Y107.502
;TYPE:WALL-INNER
G1 F1200 X109.917 Y108.202 E6.72937
G1 X110.026 Y108.887 E6.74346
G1 X110.208 Y109.567 E6.75776
G1 X110.457 Y110.219 E6.77194
G1 X110.774 Y110.843 E6.78615
G1 X111.156 Y111.429 E6.80037
G1 X111.592 Y111.97 E6.81448
G1 X112.096 Y112.477 E6.829
G1 X112.638 Y112.912 E6.84312
G1 X113.222 Y113.291 E6.85727
G1 X113.844 Y113.609 E6.87146
G1 X114.501 Y113.859 E6.88574
G1 X115.18 Y114.041 E6.90002
G1 X115.865 Y114.15 E6.91411
G1 X116.567 Y114.188 E6.92839
G1 X117.27 Y114.15 E6.9427
G1 X117.955 Y114.042 E6.95678
G1 X118.634 Y113.86 E6.97107
G1 X119.289 Y113.609 E6.98532
G1 X119.912 Y113.291 E6.99953
G1 X120.496 Y112.912 E7.01367
G1 X121.037 Y112.476 E7.02779
G1 X121.544 Y111.972 E7.04231
G1 X121.978 Y111.43 E7.05641
G1 X122.36 Y110.842 E7.07066
G1 X122.678 Y110.219 E7.08487
G1 X122.926 Y109.567 E7.09904
G1 X123.109 Y108.887 E7.11335
G1 X123.218 Y108.203 E7.12742
G1 X123.251 Y107.541 E7.14088
G1 X123.218 Y106.789 E7.15618
G1 X123.11 Y106.114 E7.17006
G1 X122.926 Y105.433 E7.18439
G1 X122.677 Y104.778 E7.19863
G1 X122.358 Y104.156 E7.21283
G1 X121.979 Y103.571 E7.22699
G1 X121.543 Y103.03 E7.24111
G1 X121.039 Y102.523 E7.25563
G1 X120.497 Y102.089 E7.26974
G1 X119.912 Y101.709 E7.28391
G1 X119.289 Y101.391 E7.29812
G1 X118.634 Y101.141 E7.31236
G1 X117.955 Y100.959 E7.32664
G1 X117.27 Y100.85 E7.34073
G1 X116.567 Y100.812 E7.35503
G1 X115.865 Y100.849 E7.36932
G1 X115.18 Y100.958 E7.38341
G1 X114.501 Y101.14 E7.39769
G1 X113.844 Y101.391 E7.41198
G1 X113.221 Y101.709 E7.42619
G1 X112.638 Y102.088 E7.44031
G1 X112.098 Y102.524 E7.45441
G1 X111.591 Y103.029 E7.46895
G1 X111.157 Y103.571 E7.48306
G1 X110.774 Y104.158 E7.4973
G1 X110.457 Y104.781 E7.5115
G1 X110.208 Y105.433 E7.52567
G1 X110.025 Y106.113 E7.53998
G1 X109.917 Y106.793 E7.55397
G1 X109.879 Y107.502 E7.56839
G1 F1500 E1.06839
G0 F4285.7 X110.021 Y107.501
G0 X110.339 Y109.286
G0 X111.604 Y109.086
G0 X112.285 Y110.296
G0 X113.773 Y111.81
G1 F1500 E7.56839
G0 F4285.7 X114.111 Y111.289
;TYPE:WALL-OUTER
G1 F1200 X113.631 Y110.929 E7.58058
G1 X113.156 Y110.455 E7.59421
G1 X112.776 Y109.953 E7.607
G1 X112.453 Y109.358 E7.62076
G1 X112.236 Y108.769 E7.63351
G1 X112.102 Y108.162 E7.64614
G1 X112.054 Y107.536 E7.65889
G1 X112.102 Y106.836 E7.67315
G1 X112.239 Y106.22 E7.68597
G1 X112.453 Y105.642 E7.69849
G1 X112.779 Y105.042 E7.71236
G1 X113.137 Y104.565 E7.72448
G1 X113.637 Y104.067 E7.73881
G1 X114.111 Y103.711 E7.75086
G1 X114.748 Y103.367 E7.76556
G1 X115.294 Y103.17 E7.77736
G1 X115.905 Y103.034 E7.79007
G1 X116.599 Y102.987 E7.8042
G1 X117.231 Y103.034 E7.81708
G1 X117.85 Y103.172 E7.82996
G1 X118.467 Y103.403 E7.84335
G1 X119.034 Y103.718 E7.85652
G1 X119.503 Y104.07 E7.86844
G1 X120.002 Y104.57 E7.88279
G1 X120.356 Y105.044 E7.89481
G1 X120.693 Y105.664 E7.90914
G1 X120.889 Y106.197 E7.92068
G1 X121.033 Y106.837 E7.93401
G1 X121.081 Y107.47 E7.9469
G1 X121.033 Y108.163 E7.96102
G1 X120.897 Y108.781 E7.97387
G1 X120.664 Y109.399 E7.98729
G1 X120.349 Y109.967 E8.00048
G1 X119.998 Y110.435 E8.01237
G1 X119.504 Y110.929 E8.02656
G1 X119.023 Y111.289 E8.03877
